X:572
L:1/8
M:2/2
K:Edor
 E2 BE dEBD | E2 BF AFDF | E2 BE dEBE | BABc dAFD | E2 BE dEBD | E2 BF AFDF | E2 BE dEBE | 
 BABc dAF!fermata!A || d2 fd cdec | d2 Ad faaf | defd cdec | BABc dAFA | d2 fd cdec | d2 fd fa a2 | 
 bfaf gefd | BABc dAFD ||

